X:1
T: Up on the Roof
C:
R:Jig
Q:180
K:F
M:6/8
L:1/16
f2|:c2A2F2 F6|c2A2F2 A2c2d2|c2A2F2 F6|A2G2F2 G2A2d2|
c2A2F2 F6|c2F2A2 c2f2g2|a2g2f2 g2f2e2|1d6 d2f2d2:|2d6 d4g2|
|:f2c2A2 F2A2c2|f6 f2g2a2|g2d2B2 G2B2d2|g6 g2a2b2|a2f2d2 d6|
A2F2A2 d2f2g2|a2g2f2 g2f2e2|1d6 d2a2g2:|2d6 d6||
